ReactWithDotNet/UIDesigner/Resources/Method.svg

<svg xmlns="http://www.w3.org/2000/svg" viewBox="0 0 16 16" enable-background="new 0 0 16 16"><style type="text/css">.icon-canvas-transparent{opacity:0;fill:#F6F6F6;} .icon-vs-out{fill:#F6F6F6;} .icon-vs-fg{fill:#F0EFF1;} .icon-vs-action-purple{fill:#652D90;}</style><path class="icon-canvas-transparent" d="M16 16h-16v-16h16v16z" id="canvas"/><path class="icon-vs-out" d="M15 3.349v8.403l-6.025 4.248h-.905l-7.07-4.418v-8.255l6.595-3.327h1.118l6.287 3.349z" id="outline"/><path class="icon-vs-fg" d="M12.715 4.398l-4.228 2.622-4.922-2.748 4.578-2.309 4.572 2.435zm-9.715.704l5 2.792v5.705l-5-3.125v-5.372zm6 8.434v-5.658l4-2.48v5.317l-4 2.821z" id="iconFg"/><path class="icon-vs-action-purple" d="M8.156.837l-6.156 3.105v7.085l6.517 4.073 5.483-3.867v-7.283l-5.844-3.113zm4.559 3.561l-4.228 2.622-4.922-2.748 4.578-2.309 4.572 2.435zm-9.715.704l5 2.792v5.705l-5-3.125v-5.372zm6 8.434v-5.658l4-2.48v5.317l-4 2.821z" id="iconBg"/></svg>

<svg xmlns="http://www.w3.org/2000/svg" viewBox="0 0 16 16"><path d="M15 3.349v8.403L8.975 16H8.07L1 11.582V3.327L7.595 0h1.118L15 3.349z" style="fill:#f6f6f6" /><path d="M12.715 4.398 8.487 7.02 3.565 4.272l4.578-2.309 4.572 2.435zM3 5.102l5 2.792v5.705l-5-3.125V5.102zm6 8.434V7.878l4-2.48v5.317l-4 2.821z" style="fill:#f0eff1" /><path d="M8.156.837 2 3.942v7.085L8.517 15.1 14 11.233V3.95L8.156.837zm4.559 3.561L8.487 7.02 3.565 4.272l4.578-2.309 4.572 2.435zM3 5.102l5 2.792v5.705l-5-3.125V5.102zm6 8.434V7.878l4-2.48v5.317l-4 2.821z" style="fill:#652d90" /></svg>
